apps/web/public/manclaw-mark.svg

<svg width="256" height="256" viewBox="0 0 256 256" fill="none" xmlns="http://www.w3.org/2000/svg">
  <defs>
    <linearGradient id="a" x1="40" y1="28" x2="216" y2="228" gradientUnits="userSpaceOnUse">
      <stop stop-color="#f3c98f"/>
      <stop offset="1" stop-color="#d38e37"/>
    </linearGradient>
    <linearGradient id="b" x1="128" y1="52" x2="128" y2="208" gradientUnits="userSpaceOnUse">
      <stop stop-color="#1e140b"/>
      <stop offset="1" stop-color="#362010"/>
    </linearGradient>
  </defs>
  <rect x="20" y="20" width="216" height="216" rx="52" fill="#17120f"/>
  <rect x="26" y="26" width="204" height="204" rx="46" fill="url(#a)"/>
  <path d="M77 77c-13.3 0-24 10.7-24 24 0 8.9 4.9 16.7 12.2 20.8-6.6 5-10.9 13-10.9 22 0 15.1 12.3 27.4 27.4 27.4s27.4-12.3 27.4-27.4c0-11.6-7.3-21.9-17.8-25.8v-11.3c5.3-3.3 8.8-9.2 8.8-15.9 0-7.6-4.1-14.4-10.7-18.1z" fill="#f8e4c3" fill-opacity=".28"/>
  <path d="M179 77c13.3 0 24 10.7 24 24 0 8.9-4.9 16.7-12.2 20.8 6.6 5 10.9 13 10.9 22 0 15.1-12.3 27.4-27.4 27.4s-27.4-12.3-27.4-27.4c0-11.6 7.3-21.9 17.8-25.8v-11.3c-5.3-3.3-8.8-9.2-8.8-15.9 0-7.6 4.1-14.4 10.7-18.1z" fill="#f8e4c3" fill-opacity=".08"/>
  <path d="M70 81c-11.6 0-21 9.4-21 21 0 8.6 5.1 16 12.5 19.4-6.7 4.4-11.1 12.1-11.1 20.8 0 13.6 11 24.6 24.6 24.6s24.6-11 24.6-24.6c0-9-4.9-17.1-12.2-21.4v-14.7c4.6-3.7 7.6-9.4 7.6-15.7C95 79.7 86.3 71 75.6 71h-6.2l10.1 18.9z" fill="url(#b)"/>
  <path d="M186 81c11.6 0 21 9.4 21 21 0 8.6-5.1 16-12.5 19.4 6.7 4.4 11.1 12.1 11.1 20.8 0 13.6-11 24.6-24.6 24.6s-24.6-11-24.6-24.6c0-9 4.9-17.1 12.2-21.4v-14.7c-4.6-3.7-7.6-9.4-7.6-15.7 0-10.7 8.7-19.4 19.4-19.4h6.2l-10.1 18.9z" fill="url(#b)"/>
  <path d="m78 181 21.6-92h18.6l9.8 43 9.8-43h18.6l21.6 92h-22l-9.5-49.1L136 181h-16l-10.5-49.1L100 181z" fill="#1c120b"/>
  <path d="m78 181 21.6-92h18.6l9.8 43 9.8-43h18.6l21.6 92h-14.9l-13.5-67.1-15.1 67.1h-13l-15.1-67.1L92.9 181z" fill="#2a180d"/>
</svg>

<svg width="256" height="256" viewBox="0 0 256 256" fill="none" xmlns="http://www.w3.org/2000/svg">
  <defs>
    <linearGradient id="bg" x1="40" y1="28" x2="216" y2="228" gradientUnits="userSpaceOnUse">
      <stop stop-color="#F3C98F"/>
      <stop offset="1" stop-color="#D38E37"/>
    </linearGradient>
    <linearGradient id="ink" x1="128" y1="52" x2="128" y2="208" gradientUnits="userSpaceOnUse">
      <stop stop-color="#1E140B"/>
      <stop offset="1" stop-color="#362010"/>
    </linearGradient>
  </defs>
  <rect x="20" y="20" width="216" height="216" rx="52" fill="#17120F"/>
  <rect x="26" y="26" width="204" height="204" rx="46" fill="url(#bg)"/>
  <path d="M77 77C63.7 77 53 87.7 53 101C53 109.9 57.9 117.7 65.2 121.8C58.6 126.8 54.3 134.8 54.3 143.8C54.3 158.9 66.6 171.2 81.7 171.2C96.8 171.2 109.1 158.9 109.1 143.8C109.1 132.2 101.8 121.9 91.3 118V106.7C96.6 103.4 100.1 97.5 100.1 90.8C100.1 83.2 96 76.4 89.4 72.7L77 77Z" fill="#F8E4C3" fill-opacity="0.28"/>
  <path d="M179 77C192.3 77 203 87.7 203 101C203 109.9 198.1 117.7 190.8 121.8C197.4 126.8 201.7 134.8 201.7 143.8C201.7 158.9 189.4 171.2 174.3 171.2C159.2 171.2 146.9 158.9 146.9 143.8C146.9 132.2 154.2 121.9 164.7 118V106.7C159.4 103.4 155.9 97.5 155.9 90.8C155.9 83.2 160 76.4 166.6 72.7L179 77Z" fill="#F8E4C3" fill-opacity="0.28"/>
  <path d="M70 81C58.4 81 49 90.4 49 102C49 110.6 54.1 118 61.5 121.4C54.8 125.8 50.4 133.5 50.4 142.2C50.4 155.8 61.4 166.8 75 166.8C88.6 166.8 99.6 155.8 99.6 142.2C99.6 133.2 94.7 125.1 87.4 120.8V106.1C92 102.4 95 96.7 95 90.4C95 79.7 86.3 71 75.6 71H69.4L79.5 89.9L70 81Z" fill="url(#ink)"/>
  <path d="M186 81C197.6 81 207 90.4 207 102C207 110.6 201.9 118 194.5 121.4C201.2 125.8 205.6 133.5 205.6 142.2C205.6 155.8 194.6 166.8 181 166.8C167.4 166.8 156.4 155.8 156.4 142.2C156.4 133.2 161.3 125.1 168.6 120.8V106.1C164 102.4 161 96.7 161 90.4C161 79.7 169.7 71 180.4 71H186.6L176.5 89.9L186 81Z" fill="url(#ink)"/>
  <path d="M78 181L99.6 89H118.2L128 132L137.8 89H156.4L178 181H156L146.5 131.9L136 181H120L109.5 131.9L100 181H78Z" fill="#1C120B"/>
  <path d="M78 181L99.6 89H118.2L128 132L137.8 89H156.4L178 181H163.1L149.6 113.9L134.5 181H121.5L106.4 113.9L92.9 181H78Z" fill="#2A180D"/>
</svg>
